brandFactory_export/1.Light/Movil interrogacion_1Light.svg

<?xml version="1.0" encoding="UTF-8"?>
<svg width="24px" height="24px" viewBox="0 0 24 24" version="1.1" xmlns="http://www.w3.org/2000/svg" xmlns:xlink="http://www.w3.org/1999/xlink">
    <title>1.Light/Movil interrogacion_1Light</title>
    <g id="Symbols" stroke="none" stroke-width="1" fill="none" fill-rule="evenodd">
        <g id="1.Light/Movil-interrogacion_1Light" fill="#5CB615" fill-rule="nonzero">
            <path d="M6.61848739,15.3546218 C7.01512605,15.3546218 7.27731092,15.6168067 7.27731092,15.989916 C7.27731092,16.4067227 7.02184874,16.6588235 6.64201681,16.6588235 C6.23865546,16.6588235 5.98319328,16.4067227 5.98319328,16.0336134 L5.98319328,15.989916 C5.98319328,15.6168067 6.24537815,15.3546218 6.61848739,15.3546218 L6.61848739,15.3546218 Z M8.52773109,8.17142857 C9.03529412,8.54453782 9.27058824,9.05882353 9.27058824,9.79159664 C9.27058824,10.6823529 8.90084034,11.210084 8.06386555,12.205042 C7.11260504,13.3042017 7.0789916,13.3445378 7.0789916,14.3663866 C7.0789916,14.5445378 6.93781513,14.6857143 6.75966387,14.6857143 L6.44369748,14.6857143 C6.29243697,14.6857143 6.15798319,14.5781513 6.13109244,14.4268908 C6.10084034,14.2756303 6.08739496,14.1210084 6.0907563,13.9663866 C6.0907563,13.1798319 6.36638655,12.7193277 6.98151261,11.9764706 L7.09915966,11.8352941 C8.09747899,10.6521008 8.28571429,10.3260504 8.28571429,9.77478992 C8.28571429,9.38823529 8.17478992,9.13613445 7.91596639,8.92773109 C7.76806723,8.80672269 7.50252101,8.67226891 6.77310924,8.67226891 C6.37310924,8.67226891 6.02016807,8.71932773 5.59327731,8.82689076 C5.42184874,8.87058824 5.24705882,8.76302521 5.20336134,8.59159664 C5.20336134,8.58823529 5.2,8.58151261 5.2,8.57815126 L5.15294118,8.33277311 C5.12605042,8.18823529 5.2,8.04705882 5.33109244,7.98319328 C5.60672269,7.85210084 6.27563025,7.71764706 6.91428571,7.71764706 C7.58991597,7.7210084 8.13445378,7.87226891 8.52773109,8.17142857 L8.52773109,8.17142857 Z M22.6386555,19.3512605 L22.6386555,4.27226891 C22.6386555,3.1394958 22.3831933,2.33277311 21.8420168,1.79159664 C21.3008403,1.25042017 20.4941176,0.98487395 19.3512605,0.98487395 L11.8218487,0.98487395 C10.6991597,0.98487395 9.88235294,1.2605042 9.34117647,1.81176471 C8.8,2.36302521 8.53445378,3.15966387 8.53445378,4.27226891 L8.53445378,4.86386555 C12.2453782,5.29747899 14.3731092,7.59327731 14.3731092,11.9731092 C14.3731092,16.3529412 12.2453782,18.6487395 8.54453782,19.0823529 L8.54453782,19.7815126 C8.60504202,20.6857143 8.8605042,21.3680672 9.34117647,21.8386555 C9.87226891,22.3697479 10.6890756,22.6386555 11.8218487,22.6386555 L19.3512605,22.6386555 C20.4840336,22.6386555 21.3008403,22.3697479 21.8420168,21.8386555 C22.3831933,21.307563 22.6386555,20.4907563 22.6386555,19.3512605 Z M7.18655462,18.1781513 C11.3613445,18.1781513 13.3882353,16.1478992 13.3882353,11.9731092 C13.3882353,7.79831933 11.3613445,5.76806723 7.18655462,5.76806723 C3.01176471,5.76806723 0.98487395,7.79831933 0.98487395,11.9731092 C0.98487395,16.1478992 3.01176471,18.1781513 7.18655462,18.1781513 L7.18655462,18.1781513 Z M22.5411765,1.10252101 C23.2705882,1.83193277 23.6235294,2.87394958 23.6235294,4.27226891 L23.6235294,19.3512605 C23.6235294,20.7697479 23.2705882,21.8117647 22.5310924,22.5411765 C21.8016807,23.2705882 20.7596639,23.6268908 19.3512605,23.6268908 L11.8218487,23.6268908 C10.4134454,23.6268908 9.37815126,23.2705882 8.64201681,22.5445378 C7.99327731,21.8957983 7.64033613,21.0084034 7.55966387,19.8184874 L7.55966387,19.1596639 C7.43193277,19.1596639 7.31428571,19.1697479 7.18655462,19.1697479 C2.64537815,19.1630252 0,16.8773109 0,11.9731092 C0,7.0789916 2.64537815,4.78319328 7.18655462,4.78319328 C7.31428571,4.78319328 7.43193277,4.79327731 7.54957983,4.79327731 L7.54957983,4.27226891 C7.54957983,2.89411765 7.90252101,1.85882353 8.64201681,1.11932773 C9.37815126,0.36302521 10.4235294,0 11.8218487,0 L19.3512605,0 C20.7697479,0 21.8117647,0.36302521 22.5411765,1.10252101 Z M14.6453782,20.0941176 C14.4235294,19.8689076 14.312605,19.5563025 14.312605,19.1630252 C14.312605,18.3596639 14.789916,17.8823529 15.589916,17.8823529 C16.389916,17.8823529 16.8672269,18.3630252 16.8672269,19.1630252 C16.8672269,19.5563025 16.7563025,19.8689076 16.5344538,20.0941176 C16.3092437,20.3260504 15.9831933,20.4470588 15.589916,20.4470588 C15.1966387,20.4470588 14.8705882,20.3226891 14.6453782,20.0941176 Z" id="Movil-interrogacion_1Light"></path>
        </g>
    </g>
</svg>

<svg width="24" height="24" viewBox="0 0 24 24" xmlns="http://www.w3.org/2000/svg"><path d="M6.618 15.355c.397 0 .66.262.66.635 0 .417-.256.669-.636.669-.403 0-.659-.252-.659-.625v-.044c0-.373.262-.635.635-.635zm1.91-7.184c.507.374.743.888.743 1.62 0 .891-.37 1.42-1.207 2.414-.951 1.1-.985 1.14-.985 2.161 0 .179-.141.32-.32.32h-.315a.317.317 0 01-.313-.26 2.115 2.115 0 01-.04-.46c0-.786.275-1.247.89-1.99l.118-.14c.998-1.184 1.187-1.51 1.187-2.061 0-.387-.111-.639-.37-.847-.148-.121-.413-.256-1.143-.256-.4 0-.753.047-1.18.155a.323.323 0 01-.39-.235L5.2 8.578l-.047-.245a.323.323 0 01.178-.35c.276-.13.945-.265 1.583-.265.676.003 1.22.154 1.614.453zm14.11 11.18V4.272c0-1.133-.255-1.94-.796-2.48-.541-.542-1.348-.807-2.49-.807h-7.53c-1.123 0-1.94.276-2.48.827-.542.551-.808 1.348-.808 2.46v.592c3.711.433 5.84 2.73 5.84 7.11 0 4.379-2.129 6.675-5.83 7.108v.7c.061.904.317 1.586.797 2.057.531.53 1.348.8 2.48.8h7.53c1.133 0 1.95-.27 2.491-.8.541-.531.797-1.348.797-2.488zM7.188 18.178c4.174 0 6.201-2.03 6.201-6.205 0-4.175-2.027-6.205-6.201-6.205-4.175 0-6.202 2.03-6.202 6.205 0 4.175 2.027 6.205 6.202 6.205zM22.54 1.103c.73.729 1.083 1.77 1.083 3.17V19.35c0 1.419-.353 2.46-1.093 3.19-.73.73-1.771 1.086-3.18 1.086h-7.53c-1.408 0-2.443-.356-3.179-1.082-.649-.65-1.002-1.537-1.082-2.727v-.658c-.128 0-.246.01-.373.01C2.645 19.163 0 16.877 0 11.973c0-4.894 2.645-7.19 7.187-7.19.127 0 .245.01.363.01v-.52c0-1.379.353-2.414 1.092-3.154C9.378.363 10.424 0 11.822 0h7.53c1.418 0 2.46.363 3.19 1.103zm-7.896 18.991c-.221-.225-.332-.538-.332-.931 0-.803.477-1.28 1.277-1.28.8 0 1.277.48 1.277 1.28 0 .393-.11.706-.333.931-.225.232-.55.353-.944.353-.393 0-.72-.124-.945-.353z" fill="#5CB615" fill-rule="nonzero"/></svg>
